X:486
T:Reel 486
M:4/4
K:Gmaj
L:1/8
 (3def |g2Bc dgab|c'bag c'gef|g2Bc d2de|dBAc BGGd|g2Bc dgab|c'bag c'gef|g2Bc d2d'c'|bd'ab g2| (3abc' |d'be'b d'bgb|c'bag fg (3abc' |d'be'b d'bgb|d'e'ac' bg (3abc' |d'be'b d'bgb|c'bag fg (3abc' |d'be'b d'bgb|d'bac' bgg2|
